X: 32091
T: Pere Joan's
R: jig
M: 6/8
K: Gmajor
D|~G3 GAB|AGE EDE|~G3 GAB|1 AGE D2D|
~G3 GAB|AGE EDE|BAB AGE|EDE G2:|2
edB A2D|~G3 GAB|AGE EDE|BAB AGE|EDE G3||
~e3 dBA|~B3 AGE|~e3 dBA|1 GAB d3|
~e3 dBA|~B3 AGE|BAB AGE|EDE G3:|2
ega b3|~e3 dBA|~B3 AGE|BAB AGE|EDE G2||

